client/resources/iconsets/breeze/src/svg/16x16/icon_pin_dark.svg

<svg xmlns="http://www.w3.org/2000/svg" width="16" height="16" viewBox="0 0 16 16">
 <path style="fill:#6d6d70"
       d="M 10 1 L 9 2 L 9 3 L 5 7 L 3 6 L 2 7 L 5.1464844 10.146484 L 1.1523438 14.140625 A 0.50005 0.50005 0 1 0 1.859375 14.847656 L 5.8535156 10.853516 L 9 14 L 10 13 L 9 11 L 13 7 L 14 7 L 15 6 L 10 1 z "
       />
</svg>

<svg xmlns="http://www.w3.org/2000/svg" width="16" height="16"><path d="M10 1L9 2v1L5 7 3 6 2 7l3.146 3.146-3.994 3.994a.5.5 0 1 0 .707.707l3.994-3.994L9 14l1-1-1-2 4-4h1l1-1-5-5z" fill="#6d6d70"/></svg>
